icons/circle-percent-outline.svg

<svg xmlns="http://www.w3.org/2000/svg" width="24" height="24" viewBox="0 0 24 24">
  <path d="M12,1 C18.0751322,1 23,5.92486775 23,12 C23,18.0751322 18.0751322,23 12,23 C5.92486775,23 1,18.0751322 1,12 C1,5.92486775 5.92486775,1 12,1 Z M12,3 C7.02943725,3 3,7.02943725 3,12 C3,16.9705627 7.02943725,21 12,21 C16.9705627,21 21,16.9705627 21,12 C21,7.02943725 16.9705627,3 12,3 Z M16.5606602,14.4393398 C17.1464466,15.0251263 17.1464466,15.9748737 16.5606602,16.5606602 C15.9748737,17.1464466 15.0251263,17.1464466 14.4393398,16.5606602 C13.8535534,15.9748737 13.8535534,15.0251263 14.4393398,14.4393398 C15.0251263,13.8535534 15.9748737,13.8535534 16.5606602,14.4393398 Z M16.7071068,7.29289322 C17.0675907,7.65337718 17.0953203,8.22060824 16.7902954,8.61289944 L16.7071068,8.70710678 L8.70710678,16.7071068 C8.31658249,17.0976311 7.68341751,17.0976311 7.29289322,16.7071068 C6.93240926,16.3466228 6.90467972,15.7793918 7.20970461,15.3871006 L7.29289322,15.2928932 L15.2928932,7.29289322 C15.6834175,6.90236893 16.3165825,6.90236893 16.7071068,7.29289322 Z M9.56066017,7.43933983 C10.1464466,8.02512627 10.1464466,8.97487373 9.56066017,9.56066017 C8.97487373,10.1464466 8.02512627,10.1464466 7.43933983,9.56066017 C6.85355339,8.97487373 6.85355339,8.02512627 7.43933983,7.43933983 C8.02512627,6.85355339 8.97487373,6.85355339 9.56066017,7.43933983 Z"/>
</svg>

<svg xmlns="http://www.w3.org/2000/svg" viewBox="0 0 24 24">
  <path d="M12 1a11 11 0 1 1 0 22 11 11 0 0 1 0-22zm0 2a9 9 0 1 0 0 18 9 9 0 0 0 0-18zm4.56 11.44a1.5 1.5 0 1 1-2.12 2.12 1.5 1.5 0 0 1 2.12-2.12zm.15-7.15a1 1 0 0 1 .08 1.32l-.08.1-8 8a1 1 0 0 1-1.5-1.32l.08-.1 8-8a1 1 0 0 1 1.42 0zm-7.15.15a1.5 1.5 0 1 1-2.12 2.12 1.5 1.5 0 0 1 2.12-2.12z"/>
</svg>
